src/images/app-icons/dark-theme/037.svg

<svg xmlns="http://www.w3.org/2000/svg" xmlns:xlink="http://www.w3.org/1999/xlink" viewBox="0 0 32 32"><defs><linearGradient id="037_svg__a" x1="72.5" y1="-24" x2="83.5" y2="-24" gradientTransform="translate(-66.5 49.5)" gradientUnits="userSpaceOnUse"><stop offset=".001" stop-opacity="0"/><stop offset=".83"/></linearGradient><linearGradient id="037_svg__b" x1="76.5" y1="-31" x2="87.5" y2="-31" xlink:href="#037_svg__a"/><linearGradient id="037_svg__d" y1="32" x2="32" gradientUnits="userSpaceOnUse"><stop offset=".1" stop-color="#be95ff"/><stop offset=".9" stop-color="#4589ff"/></linearGradient><mask id="037_svg__c" x="0" y="0" width="32" height="32" maskUnits="userSpaceOnUse"><path d="M6 20h13v-2H6v-6h18V4a2 2 0 00-2-2H6a2 2 0 00-2 2v22a2 2 0 002 2h10v-2H6zM6 4h16v6H6z" fill="#fff"/><path fill="url(#037_svg__a)" d="M6 22h11v7H6z" data-name="Gradients (black)"/><path fill="url(#037_svg__b)" d="M10 15h11v7H10z" data-name="Gradients (black)"/></mask></defs><g data-name="Layer 2"><g data-name="Dark theme icons"><g mask="url(#037_svg__c)"><path fill="url(#037_svg__d)" d="M0 0h32v32H0z"/></g><circle cx="9" cy="23" r="1" fill="#f4f4f4"/><circle cx="9" cy="15" r="1" fill="#f4f4f4"/><circle cx="9" cy="7" r="1" fill="#f4f4f4"/><path d="M20 31a1 1 0 01-.961-.725L17.246 24H14v-2h4a1 1 0 01.961.725L20 26.36l3.039-10.635a1 1 0 011.922 0L26.754 22H30v2h-4a1 1 0 01-.961-.725L24 19.64l-3.039 10.635A1 1 0 0120 31z" fill="#f4f4f4"/></g></g></svg>

<svg xmlns="http://www.w3.org/2000/svg" xmlns:xlink="http://www.w3.org/1999/xlink" viewBox="0 0 32 32"><defs><style>.cls-1{fill:#fff;}.cls-2{fill:url(#linear-gradient);}.cls-3{fill:url(#linear-gradient-2);}.cls-4{mask:url(#mask);}.cls-5{fill:url(#linear-gradient-3);}.cls-6{fill:#f4f4f4;}</style><linearGradient id="linear-gradient" x1="72.5" y1="-24" x2="83.5" y2="-24" gradientTransform="translate(-66.5 49.5)" gradientUnits="userSpaceOnUse"><stop offset="0.001" stop-opacity="0"/><stop offset="0.83"/></linearGradient><linearGradient id="linear-gradient-2" x1="76.5" y1="-31" x2="87.5" y2="-31" xlink:href="#linear-gradient"/><mask id="mask" x="0" y="0" width="32" height="32" maskUnits="userSpaceOnUse"><path class="cls-1" d="M6,20H19V18H6V12H24V4a2,2,0,0,0-2-2H6A2,2,0,0,0,4,4V26a2,2,0,0,0,2,2H16V26H6ZM6,4H22v6H6Z"/><g id="Gradients_black_" data-name="Gradients (black)"><rect class="cls-2" x="6" y="22" width="11" height="7"/></g><g id="Gradients_black_2" data-name="Gradients (black)"><rect class="cls-3" x="10" y="15" width="11" height="7"/></g></mask><linearGradient id="linear-gradient-3" y1="32" x2="32" gradientUnits="userSpaceOnUse"><stop offset="0.1" stop-color="#be95ff"/><stop offset="0.9" stop-color="#4589ff"/></linearGradient></defs><g id="Layer_2" data-name="Layer 2"><g id="Dark_theme_icons" data-name="Dark theme icons"><g class="cls-4"><rect id="Color" class="cls-5" width="32" height="32"/></g><circle class="cls-6" cx="9" cy="23" r="1"/><circle class="cls-6" cx="9" cy="15" r="1"/><circle class="cls-6" cx="9" cy="7" r="1"/><path class="cls-6" d="M20,31a1,1,0,0,1-.961-.725L17.246,24H14V22h4a1,1,0,0,1,.961.725L20,26.36l3.039-10.635a1,1,0,0,1,1.922,0L26.754,22H30v2H26a1,1,0,0,1-.961-.725L24,19.64,20.961,30.275A1,1,0,0,1,20,31Z"/></g></g></svg>
